**kern	**kern	**dynam
*part1	*part1	*part1
*staff2	*staff1	*
*I"Piano	*	*
*clefF4	*clefG2	*
*k[b-e-a-]	*k[b-e-a-]	*
=1	=1	=1
*^	*^	*
!	!	!	!	!LO:DY:a
!	!	!	!	!LO:DY:a
8FnL	4FF	4ee-	4r	p >
8An	.	.	.	.
8cJ	4r	4dd	8r	.
8r	.	.	8e-L	.
4ryy	4r	4cc	8fn	.
.	.	.	8anJ	.
*	*	*v	*v	*
=	=	=	=
8BB-L	4BBB-	4b-	]
8D	.	.	.
8FJ	4r	4f	.
*	*	*^	*
4.rEEyy	.	.	8A-XL<	.
.	4r	4g	8B-<	.
.	.	.	8dJ<	.
*v	*v	*	*	*
=	=	=	=
!	!LO:TX:a:i:t=cantando	!	!
8EE-L	[2.e-	4rggg	p <
8BB-	.	.	.
8E-J	.	8rggg	.
8rBB	.	8GL<	.
4rBB	.	8B-<	.
.	.	8e-J	.
=	=	=	=
!	!LO:TX:b:i:t=leggiero	!	!
8EE-L	2.e-_	4rggg	.
8BB-	.	.	.
8E-J	.	8rggg	.
8rBB	.	8GL<	.
4rBB	.	8B-<	.
.	.	8gJ	.
=	=	=	=
8EE-L	2.e-_	4rggg	[ p >
8BB-	.	.	.
8E-J	.	8rggg	.
8rBB	.	8GL<	.
4rBB	.	8B-<	.
.	.	8gJ	.
=	=	=	=
8EE-L	2.e-]	4rggg	.
8BB-	.	.	.
8E-J	.	8rggg	.
8rBB	.	8GL<	.
4rBB	.	8B-<	.
.	.	8gJ	.
*	*v	*v	*
=	=	=
!	!LO:TX:b:t=M.G.	!
2.r	([2.ee-	.
=	=	=
!	!LO:TX:a:t=M.D.	!
2.r	2.ee-]) 2.bb-	] pp
*clefG2	*	*
=	=	=
2.e-;: 2.b-: 2.gg:	2.ee-;: 2.bb-: 2.eee-:	.
==	==	==
*-	*-	*-
!!!system-decoration: {(s1,s2)}
!!!RDF**kern: < = below
